X: 166
T: The Bees
%R: air, waltz
B: "The Everyday Song Book", 1927
F: http://www.library.pitt.edu/happybirthday/pdf/The_Everyday_Song_Book.pdf
Z: 2017 John Chambers <jc:trillian.mit.edu>
M: 3/8
L: 1/8
K: B
% - - - - - - - - - - - - - - - - - - - - - - - - - - - - -
[FF] | [B2D2] [BD] | [BD] [AC] [BD] | ([dF][cE][AC]) | [F2A,2]z | [c2E2] [cE] | ([cE][BD]) [cE] |
w: The bees are fly-ing and hum*-ing Why are they* all
%
([d2F2][cE]) | [B2D2]z | [B2D2] [BD] | ([BD][AC]) [BD] | [c2E2]z | ([eC][cE]) [AC] | [FF][G=E] [A_E] | [B2D2]z |
w: com - ing? Hon-ey they* do seek, Hon  - ey they* do seek;
%
!p![FF] [G=E] [A_E] | [B2D2] [BD] | ([dF][cE]) [AC] | [B2D2]z | !pp![FF] [G=E] [A_E] | [B2D2] [BD] | ([dF][cE]) [AC] | [B2D2] !mf![FF] |
w: Zzz________ Zzz________ Take
%
[G2=E2] [A_E] | [B2D2] [BD] | ([dF][cE]) [AC] | [B2D2] !pp![FF] | [G2=E2] [A_E] | [B2D2] [BD] | ([dF][cE]) [AC] | [B2D2] |]
w: care, be-ware, the drone* is there; Zzz________
% - - - - - - - - - - - - - - - - - - - - - - - - - - - - -

%%sep 1 1 500
%%sep 1 1 500

